gas-station-in-use-outline.svg

<svg  viewBox="0 0 24 24" fill="currentColor"><path  d="M17.73 6.73C17.28 7.17999 17 7.81 17 8.5V18.5C17 18.7652 16.8946 19.0196 16.7071 19.2071C16.5196 19.3946 16.2652 19.5 16 19.5C15.7348 19.5 15.4804 19.3946 15.2929 19.2071C15.1054 19.0196 15 18.7652 15 18.5V14C15 12.89 14.1 12 13 12H12V5C12 3.89 11.1 3 10 3H4C2.89 3 2 3.89 2 5V21H12V13.5H13.5V18.5C13.5 19.163 13.7634 19.7989 14.2322 20.2678C14.7011 20.7366 15.337 21 16 21C16.3283 21 16.6534 20.9353 16.9567 20.8097C17.26 20.6841 17.5356 20.4999 17.7678 20.2678C17.9999 20.0356 18.1841 19.76 18.3097 19.4567C18.4353 19.1534 18.5 18.8283 18.5 18.5V10.79C18.81 10.92 19.14 11 19.5 11C20.163 11 20.7989 10.7366 21.2678 10.2678C21.4999 10.0356 21.6841 9.76003 21.8097 9.45671C21.9353 9.1534 22 8.82831 22 8.5C22 7.42999 21.33 6.5 20.39 6.17L22.5 4.06L21.44 3L17.72 6.72L17.73 6.73ZM4 10V5H10V10H4ZM20.2071 9.20711C20.0196 9.39464 19.7652 9.5 19.5 9.5C19.2348 9.5 18.9804 9.39464 18.7929 9.20711C18.6054 9.01958 18.5 8.76521 18.5 8.5C18.5 8.23479 18.6054 7.98042 18.7929 7.79289C18.9804 7.60536 19.2348 7.5 19.5 7.5C19.7652 7.5 20.0196 7.60536 20.2071 7.79289C20.3946 7.98042 20.5 8.23479 20.5 8.5C20.5 8.76521 20.3946 9.01958 20.2071 9.20711ZM10 12V19H4V12H10Z"/></svg>

<svg fill="currentColor" viewBox="0 0 24 24"><path d="M17.73 6.73c-.45.45-.73 1.08-.73 1.77v10a1 1 0 0 1-2 0V14a2 2 0 0 0-2-2h-1V5a2 2 0 0 0-2-2H4c-1.11 0-2 .89-2 2v16h10v-7.5h1.5v5a2.5 2.5 0 0 0 5 0v-7.71c.31.13.64.21 1 .21A2.5 2.5 0 0 0 22 8.5c0-1.07-.67-2-1.61-2.33l2.11-2.11L21.44 3l-3.72 3.72zM4 10V5h6v5zm16.207-.793a1 1 0 1 1-1.414-1.414 1 1 0 0 1 1.414 1.414M10 12v7H4v-7z"/></svg>
